X: 1
T: Missa L'homme arm\'e / Kyrie
N: Derived from Bus1001a-Missa_Lhomme_arme-Kyrie.krn
C: Antoine Busnoys
%%abc-version 2.0
%%abcx-abcm2ps-target-version 5.9.1 (29 Sep 2008)
%%abc-creator hum2abc beta
%%abcx-conversion-date 2019/02/16 20:26:06
%%abc-edited-by Jesse Rodin
%%abc-edited-by Will Watson 14/10/2012
%%abcx-initial-encoding-date 2012/10/29/
%%humdrum-veritas 2415225262
%%humdrum-veritas-data 3622028287
%%linebreak <none>
%%barnumbers 0
L: 1/4
M: 3/1
Q: 1/2=120
%%staves [1 2 3 4]
V: 1 clef=treble
V: 2 clef=treble-8
V: 3 clef=treble-8
V: 4 clef=bass
K: F
[V:1] G12- | 
[V:2] G8G4 | 
[V:3] z12 :
[V:4] z12 | 
[V:1] G4A6G2 | 
[V:2] c8c4 | 
[V:3] z12 :
[V:4] z12 | 
[V:1] G4c6B2 | 
[V:2] B4A6G2 | 
[V:3] z12 | 
[V:4] z12 | 
[V:1] B6G2G4 | 
[V:2] G4d4e4- | 
[V:3] G8G4 :
[V:4] G,8C,4- | 
[V:1] z4G4A4 | 
[V:2] e2f2g4f4 | 
[V:3] c8c4 :
[V:4] C,4E,4F,4 | 
[V:1] B4c8 | 
[V:2] d2g4^f2^f2e2 | 
[V:3] B4A8 | 
[V:4] G,4z4A,4 | 
[V:1] B4A2G4^F2 | 
[V:2] g2d4B2A4 | 
[V:3] G4z4z4 :
[V:4] B,2A,G,F,2G,2D,4 | 
[V:1] G2B4A2G4 | 
[V:2] G4z4c4 | 
[V:3] d4d4G4 :
[V:4] z2G,3D,F,2E,4 | 
[V:1] F4z4A4 | 
[V:2] d4B2G2A4 | 
[V:3] z4d4d4 | 
[V:4] D,4G,2G,4^F,2 | 
[V:1] B4c3BA3G | 
[V:2] G4g4e4 | 
[V:3] d4c8 :
[V:4] G,4z2C,3D,E,F, | 
[V:1] G3F/G/A3G2^FFE | 
[V:2] d2g2f2d3cA2 | 
[V:3] B4A8 :
[V:4] G,2E,2F,2G,2D,4 | 
[V:1] G4z4A4 | 
[V:2] B2_e2d2g4^f2 | 
[V:3] G8z4 | 
[V:4] z2G,4B,2A,4 | 
[V:1] B4A6G2 | 
[V:2] g4z2f4e2 | 
[V:3] d4d4d4 :
[V:4] G,4D,8 | 
[V:1] G4z2d4c2 | 
[V:2] g6d2e4 | 
[V:3] G8z4 :
[V:4] z2D4B,2A,4 | 
[V:1] d4B3GB3c | 
[V:2] d4G4z2d2- | 
[V:3] g8g4 | 
[V:4] B,2G,3F,_E,3F,G,2 | 
[V:1] A3Bc2d3cBA | 
[V:2] d2cBA2B3cd2 | 
[V:3] f8f4 :
[V:4] D,4z4D,4 | 
[V:1] G3FG2A2B2AG | 
[V:2] G2c3BA2G2d2- | 
[V:3] g8g4 :
[V:4] E,2C,2E,2F,2G,3A, | 
[V:1] F3EF2G4^F2 | 
[V:2] d2cBA2G2A4 | 
[V:3] d12 | 
[V:4] B,2A,G,F,2E,2D,4 | 
[V:1] G12 ||  
[V:2] G12 ||  
[V:3] z12 ||  
[V:4] G,12 ||  
[V:1]  [K:F] [K:clef=treble][M:2/1]G4A2B2- | 
[V:2]  [K:F] [K:clef=treble-8][M:2/1]z8 | 
[V:3]  [K:F] [K:clef=treble-8][M:2/1]z8 | 
[V:4]  [K:F] [K:clef=bass][M:2/1]z8 | 
[V:1] BAG2F2G2- | 
[V:2] G4A2B2- | 
[V:3] z8 | 
[V:4] z8 | 
[V:1] G2B2A2G2 | 
[V:2] BAG2F2G2- | 
[V:3] z8 | 
[V:4] z8 | 
[V:1] B2d2c2BA | 
[V:2] G2B2A2G2 | 
[V:3] z8 | 
[V:4] z8 | 
[V:1] G2B2A2B2- | 
[V:2] B2d2c2BA | 
[V:3] z8 | 
[V:4] z8 | 
[V:1] B2G4^F2 | 
[V:2] G2B2A4 | 
[V:3] z8 | 
[V:4] z8 | 
[V:1] G4z4 | 
[V:2] G8 | 
[V:3] z8 | 
[V:4] D4_E2D2- | 
[V:1] d4_e2d2- | 
[V:2] z8 | 
[V:3] z8 | 
[V:4] D2B,2C2D2 | 
[V:1] d2B2c2d2 | 
[V:2] z8 | 
[V:3] z8 | 
[V:4] G,4A,2B,2- | 
[V:1] G4A2B2- | 
[V:2] z8 | 
[V:3] z8 | 
[V:4] B,A,G,2F,2D,2 | 
[V:1] BAG2F2D2 | 
[V:2] z8 | 
[V:3] z8 | 
[V:4] _E,4D,4 | 
[V:1] _E4D4 | 
[V:2] z8 | 
[V:3] z8 | 
[V:4] z2G,4F,2 | 
[V:1] z2G4F2 | 
[V:2] z8 | 
[V:3] z8 | 
[V:4] G,2B,2A,4 | 
[V:1] G2B2A4 | 
[V:2] z8 | 
[V:3] z8 | 
[V:4] G,2D3CA,2 | 
[V:1] G2d3cA2 | 
[V:2] z8 | 
[V:3] z8 | 
[V:4] B,2G,4F,2 | 
[V:1] B2G4^F2 | 
[V:2] z8 | 
[V:3] z8 | 
[V:4] G,2B,2A,4 | 
[V:1] G4z4 | 
[V:2] d4e2d2- | 
[V:3] z8 | 
[V:4] G,6G,2 | 
[V:1] B4A4 | 
[V:2] d2g4f2 | 
[V:3] z8 | 
[V:4] G,4D,4 | 
[V:1] G4F4 | 
[V:2] g2fed3c | 
[V:3] z8 | 
[V:4] z8 | 
[V:1] G3EF2G2 | 
[V:2] B2c2A2G2- | 
[V:3] z8 | 
[V:4] z8 | 
[V:1] B3GB2A2- | 
[V:2] G2d4c2 | 
[V:3] z8 | 
[V:4] G,3F,G,2A,2 | 
[V:1] A2d2c2B2 | 
[V:2] d2B2A2d2- | 
[V:3] z8 | 
[V:4] F,2G,2A,2B,2 | 
[V:1] A2G2A2B2- | 
[V:2] dcB2A2G2 | 
[V:3] z8 | 
[V:4] F,2G,2F,2_E,2 | 
[V:1] BAG4^F2 | 
[V:2] B4A4 | 
[V:3] z8 | 
[V:4] G,3F,D,4 | 
[V:1] G8 ||  
[V:2] G8 ||  
[V:3] z8 ||  
[V:4] D8 ||  
[V:1]  [K:F] [K:clef=treble][M:2/1]B6c2d4 | 
[V:2]  [K:F] [K:clef=treble-8][M:2/1]d8G4 | 
[V:3]  [K:F] [K:clef=treble-8][M:3/1]g8g4 :
[V:4]  [K:F] [K:clef=bass][M:2/1]G,8B,4- | 
[V:1] d4c2c4A2 | 
[V:2] B4c8 | 
[V:3] f8f4 | 
[V:4] B,4A,8 | 
[V:1] B6G2G4 | 
[V:2] d4z4d2e2 | 
[V:3] g8g4 :
[V:4] G,6B,4C2 | 
[V:1] z4F4B4- | 
[V:2] f4B6c2 | 
[V:3] d4z4z4 | 
[V:4] D3EF4B,4- | 
[V:1] B2A2B3cd4- | 
[V:2] d4G4z4 | 
[V:3] g8g4 :
[V:4] B,2C2D4G,4 | 
[V:1] d2c4B2B4 | 
[V:2] z4A4B3c | 
[V:3] a8g4 | 
[V:4] F,8G,4 | 
[V:1] A4G2G4FE | 
[V:2] d2cde2c3BG2 | 
[V:3] f4e8 :
[V:4] z4C,8 | 
[V:1] F2A3GE2^F3E/F/ | 
[V:2] B2A4G2A4 | 
[V:3] d12 | 
[V:4] D,3E,F,2G,2D,4 | 
[V:1] G4B4A4 | 
[V:2] G6d4c2 | 
[V:3] z12 :
[V:4] G,2B,3A,G,2F,4 | 
[V:1] G2B3AG4^F2 | 
[V:2] _e2d3Bc2A4 | 
[V:3] z12 | 
[V:4] z2G,4C,2D,4 | 
[V:1] G12 | 
[V:2] G8z4 | 
[V:3] G8G4 :
[V:4] E,6C,2C,4- | 
[V:1] z4z4A4 | 
[V:2] g4a6g2 | 
[V:3] c8c4 | 
[V:4] C,4F,6E,2 | 
[V:1] B4c4A4 | 
[V:2] g6fefedc | 
[V:3] B4A8 :
[V:4] G,4z4F,4 | 
[V:1] B4A2F2G4 | 
[V:2] B2_e4d2c2B2 | 
[V:3] G4z4z4 | 
[V:4] G,4D,4E,4 | 
[V:1] F3GA2B3cBA/G/ | 
[V:2] d3cA2G2B2d2 | 
[V:3] d4d4G4 :
[V:4] D,3E,F,2G,3A,B,2 | 
[V:1] F2A2B2G4^F2 | 
[V:2] c2BAG2B2A4 | 
[V:3] z4d4d4 | 
[V:4] A,2F,2G,4D,4 | 
[V:1] G2B2c2A3GA2 | 
[V:2] G4z4z4 | 
[V:3] d4c8 :
[V:4] z2G,2A,2F,3E,F,2 | 
[V:1] B2G2A2^F3GFE/F/ | 
[V:2] d2_e2c2_ef_e2d2 | 
[V:3] B4A8 | 
[V:4] G,2_E,2F,2E,D,2C,D,2 | 
[V:1] G12- | 
[V:2] d12- | 
[V:3] G12- :
[V:4] z2G,2G,8 | 
[V:1] G12 |]  
[V:2] d12 |]  
[V:3] G12 |]  
[V:4] G,12 |]  



